X:259
T:The Sligo Maid
R:reel
M:4/4
L:1/8
K:Ador
|: A2BA (3B^cd ef | gedB AGEF | G2BG dGBG | DEGA BAdB |
A2BA (3B^cd ef | gedB AGEG | B3G A2GE | DEGA BAA2:|
|: eaag a2ga | bgaf gfed | eggf g2ge | dega bgag |
eaag a2ga | bgaf gfed | eg (3gfg edBA | dBgB BAA2 :|

